X: 110412
T: Killeen's Own Town
N: 056
C: BB
M: C|
Q: 1/8=320
L: 1/8
R: hornpipe
K: G
A|"Em"BGBe dB G2|"G"gfga ge d2|"C"(3cBc ef "G"gdBd|"Am"(3cBA "G"BG "D7"AdcA|
"Em"BGBe dB G2|"G"gfga ge d2|"Am"ecAc "C"=cGEG |"D"FADF "G"G3 :|
A|"G"Bdgf gdBd|"A"^cea^g "A7"a=geg|"D7"fdcA "D"FADF|"G"GABc d3 A|
"G"Bdgf gdBd|"A"^cea^g "A7"a=geg |"D7"fdcA "D"FAdf|"G"(3gfe "D"df "G"g3 :|
